X:1
T: The Humors of Trim
T: the Rolling Wave
C:
R:Jig
Q:180
K:D
M:6/8
L:1/16
F2E2F2 D2E2D2|D4d2 c2A2G2|F2E2F2 D2E2D2|A4F2 G2F2E2|F2E2F2 D2E2D2|D4d2 c2A2G2|F2A2F2 G2B2G2|A4F2 G2F2E2|
F2E2F2 D2E2D2|D4d2 c2A2G2|F2E2F2 D2E2D2|A4F2 G2F2E2|F2E2F2 D2E2D2|D4d2 c2A2G2|F2A2F2 G2B2G2|A4F2 G2F2E2|
D4d2 c2A2d2|c2A2d2 c2A2G2|F4d2 c2A2d2|A4F2 G2F2E2|D4d2 c2A2d2|f2e2d2 c2A2G2|F2A2F2 G2B2G2|A4F2 G2F2E2|
D4d2 c2A2d2|c2A2d2 c2A2G2|F4d2 c2A2d2|A4F2 G2F2E2|D4d2 c2A2d2|f2e2d2 c2A2G2|F2A2F2 G2B2G2|A4F2 G2F2E2||
